X:115
T:Leazes Hopping
Z:Jack Campin, http://www.campin.me.uk/
S:Northumbrian Minstrelsy
M:6/8
L:1/8
K:G
g2g g2e|dBG GBG|g2g g2e|aba agf|
g2g g2e|dBG GAB|GAB g2e|dBG G3:|
ded dBd|cAc GAB|ded dcB|cdc ABc| 
ded dBd|cec GAB|GAB g2e|dBG G3:|

